src/assets/icons/calendar.svg

<svg xmlns="http://www.w3.org/2000/svg" viewBox="0 0 32 32"><path d="M9 2v3h14V2h2v3h4v25H3V5h4V2zm18 11H5v15h22zm-6 3a3 3 0 11-3 3 3 3 0 013-3zm6-9H5v4h22z" fill-rule="evenodd"/></svg>

<svg xmlns="http://www.w3.org/2000/svg" width="32" height="32" viewBox="0 0 32 32"><defs><style>.cls-1{fill-rule:evenodd;}</style></defs><g id="calendar"><path id="Combined-Shape" class="cls-1" d="M9,2V5H23V2h2V5h4V30H3V5H7V2ZM27,13H5V28H27Zm-6,3a3,3,0,1,1-3,3A3,3,0,0,1,21,16Zm6-9H5v4H27Z"/></g></svg>
